X: 234
%
U:~=!turn!
T: The Highway to Dublin
C:
O:Scotland
B:Keith Norman MacDonald : "The Skye collection of the best reels & strathspeys extant" : 1887
Z:Ralph Palmer
R:Jig
M:6/8
L:1/8
K:A
=g | ~f>ed ~c>BA | ecA A2 =g | ~f>ed TcBc | dB=G G2 g | ~f>ed ~c>BA | def ef^g | a=gf Tg2 e | dB=G G2 :|
=g | (f/=g/)af g2 f | ecA A2 =g | (f/=g/)af g2 e | dB=G G2 g | (f/=g/)af geg | fdf ef^g | a=gf gfe | dB=G G2 :|


